material/.icons/material/alphabetical-variant.svg

<svg xmlns="http://www.w3.org/2000/svg" viewBox="0 0 24 24"><path d="M3 7a2 2 0 00-2 2v8h2v-4h2v4h2V9a2 2 0 00-2-2H3m0 2h2v2H3m12-.5V9a2 2 0 00-2-2H9v10h4a2 2 0 002-2v-1.5a1.54 1.54 0 00-1.5-1.5 1.54 1.54 0 001.5-1.5M13 15h-2v-2h2v2m0-4h-2V9h2m6-2a2 2 0 00-2 2v6a2 2 0 002 2h2a2 2 0 002-2v-1h-2v1h-2V9h2v1h2V9a2 2 0 00-2-2z"/></svg>

<?xml version="1.0" encoding="UTF-8"?><!DOCTYPE svg PUBLIC "-//W3C//DTD SVG 1.1//EN" "http://www.w3.org/Graphics/SVG/1.1/DTD/svg11.dtd"><svg xmlns="http://www.w3.org/2000/svg" xmlns:xlink="http://www.w3.org/1999/xlink" version="1.1" id="mdi-alphabetical-variant" width="24" height="24" viewBox="0 0 24 24"><path d="M3 7A2 2 0 0 0 1 9V17H3V13H5V17H7V9A2 2 0 0 0 5 7H3M3 9H5V11H3M15 10.5V9A2 2 0 0 0 13 7H9V17H13A2 2 0 0 0 15 15V13.5A1.54 1.54 0 0 0 13.5 12A1.54 1.54 0 0 0 15 10.5M13 15H11V13H13V15M13 11H11V9H13M19 7A2 2 0 0 0 17 9V15A2 2 0 0 0 19 17H21A2 2 0 0 0 23 15V14H21V15H19V9H21V10H23V9A2 2 0 0 0 21 7Z" /></svg>
